icon-themes/breeze_svg/cmd/sc_photoalbumdialog.svg

<svg viewBox="0 0 16 16" xmlns="http://www.w3.org/2000/svg"><path d="m2 2v10h2v2h10v-10h-2v-2zm1 1h8v1h-7v7h-1zm2 2h8v6l-2-2-2 2-1-1-3 3zm2.5 1c-.8284271 0-1.5.6715729-1.5 1.5s.6715729 1.5 1.5 1.5 1.5-.6715729 1.5-1.5-.6715729-1.5-1.5-1.5z" fill="#4d4d4d"/></svg>

<svg xmlns="http://www.w3.org/2000/svg" viewBox="0 0 16 16">
 <path
   style="fill:#4d4d4d"
   d="M 2 2 L 2 12 L 4 12 L 4 14 L 14 14 L 14 4 L 12 4 L 12 2 L 2 2 z M 3 3 L 11 3 L 11 4 L 4 4 L 4 11 L 3 11 L 3 3 z M 5 5 L 13 5 L 13 11 L 11 9 L 9 11 L 8 10 L 5 13 L 5 5 z M 7.5 6 C 6.6715729 6 6 6.6715729 6 7.5 C 6 8.3284271 6.6715729 9 7.5 9 C 8.3284271 9 9 8.3284271 9 7.5 C 9 6.6715729 8.3284271 6 7.5 6 z "
   />
</svg>
